branches/nugui/src/gui/icons/file_open.svg

<?xml version="1.0" encoding="UTF-8" standalone="no"?>
<!-- Created with Inkscape (http://www.inkscape.org/) -->

<svg
   xmlns:dc="http://purl.org/dc/elements/1.1/"
   xmlns:cc="http://creativecommons.org/ns#"
   xmlns:rdf="http://www.w3.org/1999/02/22-rdf-syntax-ns#"
   xmlns:svg="http://www.w3.org/2000/svg"
   xmlns="http://www.w3.org/2000/svg"
   xmlns:xlink="http://www.w3.org/1999/xlink"
   xmlns:inkscape="http://www.inkscape.org/namespaces/inkscape"
   version="1.0"
   width="100"
   height="100"
   id="svg2">
  <defs
     id="defs4">
    <linearGradient
       id="linearGradient3233">
      <stop
         id="stop3235"
         style="stop-color:#598fff;stop-opacity:1"
         offset="0" />
      <stop
         id="stop3237"
         style="stop-color:#598fff;stop-opacity:0"
         offset="1" />
    </linearGradient>
    <linearGradient
       id="linearGradient3225">
      <stop
         id="stop3227"
         style="stop-color:#598fff;stop-opacity:1"
         offset="0" />
      <stop
         id="stop3229"
         style="stop-color:#5932ff;stop-opacity:1"
         offset="1" />
    </linearGradient>
    <linearGradient
       x1="49.468506"
       y1="74.248131"
       x2="119.22048"
       y2="74.248131"
       id="linearGradient3267"
       xlink:href="#linearGradient3225"
       gradientUnits="userSpaceOnUse"
       gradientTransform="matrix(1.0572706,-0.282032,-0.3759923,1.0276152,-7.6858621,-2.1227675)" />
    <linearGradient
       x1="14.665999"
       y1="44.657066"
       x2="82.196732"
       y2="44.657066"
       id="linearGradient3271"
       xlink:href="#linearGradient3233"
       gradientUnits="userSpaceOnUse"
       gradientTransform="matrix(1.0942409,0,0,1.0942409,-7.6858621,-2.1227675)" />
  </defs>
  <metadata
     id="metadata7">
    <rdf:RDF>
      <cc:Work
         rdf:about="">
        <dc:format>image/svg+xml</dc:format>
        <dc:type
           rdf:resource="http://purl.org/dc/dcmitype/StillImage" />
      </cc:Work>
    </rdf:RDF>
  </metadata>
  <g
     id="layer1">
    <g
       transform="matrix(1.0942409,0,0,1.0942409,-15.725182,-21.327811)"
       id="g3283"
       style="fill:#282828;fill-opacity:1">
      <path
         d="m 24.647384,41.55873 16.643862,-4.108386 0.0096,7.911418 16.653434,-4.462273 16.653433,-4.462274 16.653434,-4.462273 0,47.153542 -66.613735,17.849094 0,-55.418848 z"
         inkscape:connector-curvature="0"
         id="path3241"
         style="fill:#282828;fill-opacity:1;fill-rule:evenodd;stroke:none" />
      <path
         d="m 33.024516,53.344623 66.53113,-17.747501 -14.91165,40.754661 -66.7352,17.543419 15.11572,-40.550579 z"
         inkscape:connector-curvature="0"
         id="path3243"
         style="fill:#282828;fill-opacity:1;fill-rule:evenodd;stroke:none" />
      <path
         d="M 39.69554,56.303818 106.22667,38.556317 91.315015,79.310978 24.783888,97.058479 39.69554,56.303818 z"
         inkscape:connector-curvature="0"
         id="path3245"
         style="fill:#282828;fill-opacity:1;fill-rule:evenodd;stroke:none" />
    </g>
    <path
       d="m 8.8639835,21.665521 18.2123955,-4.495563 0.01047,8.656997 18.222868,-4.882802 18.222868,-4.882803 18.222868,-4.882802 0,51.597334 -72.8914735,19.53121 0,-60.641571 z"
       inkscape:connector-curvature="0"
       id="rect2233"
       style="fill:url(#linearGradient3271);fill-opacity:1;fill-rule:evenodd;stroke:#000000;stroke-width:1.0034188;stroke-linecap:round;stroke-linejoin:round;stroke-miterlimit:4;stroke-opacity:1;stroke-dashoffset:2.63393869" />
    <path
       d="M 18.030585,34.562128 90.831669,15.142086 74.514731,59.737503 1.4903447,78.934229 18.030585,34.562128 z"
       inkscape:connector-curvature="0"
       id="path3217"
       style="fill:#ffffff;fill-opacity:1;fill-rule:evenodd;stroke:#000000;stroke-width:1.0034188;stroke-linecap:round;stroke-linejoin:round;stroke-miterlimit:4;stroke-opacity:1;stroke-dashoffset:2.63393869" />
    <path
       d="M 25.330291,37.8002 98.131372,18.380158 81.814433,62.975575 9.0133513,82.395616 25.330291,37.8002 z"
       inkscape:connector-curvature="0"
       id="rect3206"
       style="fill:url(#linearGradient3267);fill-opacity:1;fill-rule:evenodd;stroke:#000000;stroke-width:0.88561147;stroke-linecap:round;stroke-linejoin:round;stroke-miterlimit:4;stroke-opacity:1;stroke-dashoffset:2.63393869" />
    <path
       d="m 12.419203,22.828319 11.443178,-2.824646 0.0066,5.439349 -11.44976,2.654362 0,-5.269065 z"
       inkscape:connector-curvature="0"
       id="path3273"
       style="fill:#ffffff;fill-opacity:1;fill-rule:evenodd;stroke:#000000;stroke-width:0.63046628;stroke-linecap:round;stroke-linejoin:round;stroke-miterlimit:4;stroke-opacity:1;stroke-dashoffset:2.63393869" />
  </g>
</svg>

<?xml version="1.0" encoding="UTF-8" standalone="no"?>
<!-- Created with Inkscape (http://www.inkscape.org/) -->
<svg
   xmlns:svg="http://www.w3.org/2000/svg"
   xmlns="http://www.w3.org/2000/svg"
   xmlns:xlink="http://www.w3.org/1999/xlink"
   version="1.0"
   width="100"
   height="100"
   id="svg2">
  <defs
     id="defs4">
    <linearGradient
       id="linearGradient3233">
      <stop
         id="stop3235"
         style="stop-color:#598fff;stop-opacity:1"
         offset="0" />
      <stop
         id="stop3237"
         style="stop-color:#598fff;stop-opacity:0"
         offset="1" />
    </linearGradient>
    <linearGradient
       id="linearGradient3225">
      <stop
         id="stop3227"
         style="stop-color:#598fff;stop-opacity:1"
         offset="0" />
      <stop
         id="stop3229"
         style="stop-color:#5932ff;stop-opacity:1"
         offset="1" />
    </linearGradient>
    <linearGradient
       x1="49.468506"
       y1="74.248131"
       x2="119.22048"
       y2="74.248131"
       id="linearGradient3267"
       xlink:href="#linearGradient3225"
       gradientUnits="userSpaceOnUse"
       gradientTransform="matrix(1.0572706,-0.282032,-0.3759923,1.0276152,-7.6858621,-2.1227675)" />
    <linearGradient
       x1="14.665999"
       y1="44.657066"
       x2="82.196732"
       y2="44.657066"
       id="linearGradient3271"
       xlink:href="#linearGradient3233"
       gradientUnits="userSpaceOnUse"
       gradientTransform="matrix(1.0942409,0,0,1.0942409,-7.6858621,-2.1227675)" />
  </defs>
  <g
     id="layer1">
    <g
       transform="matrix(1.0942409,0,0,1.0942409,-15.725182,-21.327811)"
       id="g3283"
       style="fill:#282828;fill-opacity:1">
      <path
         d="M 24.647384,41.55873 L 41.291246,37.450344 L 41.300846,45.361762 L 57.95428,40.899489 L 74.607713,36.437215 L 91.261147,31.974942 L 91.261147,79.128484 L 24.647412,96.977578 L 24.647412,41.55873 L 24.647384,41.55873 z"
         id="path3241"
         style="fill:#282828;fill-opacity:1;fill-rule:evenodd;stroke:none" />
      <path
         d="M 33.024516,53.344623 L 99.555646,35.597122 L 84.643996,76.351783 L 17.908796,93.895202 L 33.024516,53.344623 L 33.024516,53.344623 z"
         id="path3243"
         style="fill:#282828;fill-opacity:1;fill-rule:evenodd;stroke:none" />
      <path
         d="M 39.69554,56.303818 L 106.22667,38.556317 L 91.315015,79.310978 L 24.783888,97.058479 L 39.69554,56.303818 z"
         id="path3245"
         style="fill:#282828;fill-opacity:1;fill-rule:evenodd;stroke:none" />
    </g>
    <path
       d="M 8.8639835,21.665521 L 27.076379,17.169958 L 27.086849,25.826955 L 45.309717,20.944153 L 63.532585,16.06135 L 81.755453,11.178548 L 81.755453,62.775882 L 8.8639795,82.307092 L 8.8639795,21.665521 L 8.8639835,21.665521 z"
       id="rect2233"
       style="fill:url(#linearGradient3271);fill-opacity:1;fill-rule:evenodd;stroke:#000000;stroke-width:1.0034188;stroke-linecap:round;stroke-linejoin:round;stroke-miterlimit:4;stroke-dashoffset:2.63393869;stroke-opacity:1" />
    <path
       d="M 18.030585,34.562128 L 90.831669,15.142086 L 74.514731,59.737503 L 1.4903447,78.934229 L 18.030585,34.562128 z"
       id="path3217"
       style="fill:#ffffff;fill-opacity:1;fill-rule:evenodd;stroke:#000000;stroke-width:1.0034188;stroke-linecap:round;stroke-linejoin:round;stroke-miterlimit:4;stroke-dashoffset:2.63393869;stroke-opacity:1" />
    <path
       d="M 25.330291,37.8002 L 98.131372,18.380158 L 81.814433,62.975575 L 9.0133513,82.395616 L 25.330291,37.8002 z"
       id="rect3206"
       style="fill:url(#linearGradient3267);fill-opacity:1;fill-rule:evenodd;stroke:#000000;stroke-width:0.88561147;stroke-linecap:round;stroke-linejoin:round;stroke-miterlimit:4;stroke-dashoffset:2.63393869;stroke-opacity:1" />
    <path
       d="M 12.419203,22.828319 L 23.862381,20.003673 L 23.868981,25.443022 L 12.419221,28.097384 L 12.419221,22.828319 L 12.419203,22.828319 z"
       id="path3273"
       style="fill:#ffffff;fill-opacity:1;fill-rule:evenodd;stroke:#000000;stroke-width:0.63046628;stroke-linecap:round;stroke-linejoin:round;stroke-miterlimit:4;stroke-dashoffset:2.63393869;stroke-opacity:1" />
  </g>
</svg>
